presets/tower/mast_lighting.svg

<svg height="14" viewBox="0 0 14 14" width="14" xmlns="http://www.w3.org/2000/svg"><path d="m0 0h14v14h-14z" fill="none" visibility="hidden"/><path d="m7 1c-.5977925 0-1 .4692172-1 1v7l-2.8867188 5h1.1542969l1.7324219-3v3h2v-3l1.7324219 3h1.1542971l-2.886719-5v-7c0-.4960937-.4022075-1-1-1zm-4.2851562.5449219c-.1672661.084188-.2293672.3762768 0 .46875l1.875.75c.3064289.1235421.493322-.3454524.1875-.46875l-1.875-.75c-.07646-.030824-.1317451-.028062-.1875 0zm8.2851562.0507812-1.875.75c-.305822.1232976-.118929.5922921.1875.46875l1.875-.75c.305823-.1232976.118322-.5920476-.1875-.46875zm-8.2539062 1.7304688c-.329742 0-.329742.5 0 .5h2c.330396 0 .3297419-.5 0-.5zm6.4101562.0507812c-.329742 0-.330396.5 0 .5h2c.329741 0 .329741-.5 0-.5zm-4.5664062 1.0742188-1.875.75c-.3058221.1232976-.1189291.5922921.1875.46875l1.875-.75c.305822-.1232976.1183218-.5920476-.1875-.46875zm4.5351562.0507812c-.167266.084187-.229367.3762768 0 .46875l1.875.75c.306429.1235421.493322-.3454524.1875-.46875l-1.875-.75c-.07645-.030824-.131745-.028062-.1875 0z" fill="#555"/></svg>

<?xml version="1.0" encoding="UTF-8" standalone="no"?>
<!DOCTYPE svg PUBLIC "-//W3C//DTD SVG 1.1//EN" "http://www.w3.org/Graphics/SVG/1.1/DTD/svg11.dtd">
<svg xmlns:dc="http://purl.org/dc/elements/1.1/" xmlns:xl="http://www.w3.org/1999/xlink" version="1.1" xmlns="http://www.w3.org/2000/svg" viewBox="0 0 14 14" width="14" height="14">
  <defs/>
  <g id="Canvas_1" fill-opacity="1" stroke-dasharray="none" stroke="none" stroke-opacity="1" fill="none">
    <title>Canvas 1</title>
    <g id="Canvas_1_Layer_1">
      <title>Layer 1</title>
      <g id="Graphic_2"/>
      <g id="Graphic_3">
        <path d="M 7 1 C 6.4022075 1 6 1.4692172 6 2 L 6 9 L 3.1132812 14 L 4.267578 14 L 6 11 L 6 14 L 8 14 L 8 11 L 9.732422 14 L 10.886719 14 L 8 9 L 8 2 C 8 1.5039063 7.5977925 1 7 1 Z M 2.7148438 1.5449219 C 2.5475777 1.6291099 2.4854766 1.9211987 2.7148438 2.013672 L 4.589844 2.763672 C 4.8962727 2.887214 5.083166 2.4182195 4.777344 2.294922 L 2.9023438 1.5449219 C 2.8258838 1.5140979 2.7705987 1.5168599 2.7148438 1.5449219 Z M 11 1.5957031 L 9.125 2.345703 C 8.819178 2.4690007 9.006071 2.9379952 9.3125 2.814453 L 11.1875 2.064453 C 11.493323 1.9411555 11.305822 1.4724055 11 1.5957031 Z M 2.7460938 3.326172 C 2.4163518 3.326172 2.4163518 3.826172 2.7460938 3.826172 L 4.746094 3.826172 C 5.07649 3.826172 5.075836 3.326172 4.746094 3.326172 Z M 9.15625 3.376953 C 8.826508 3.376953 8.825854 3.876953 9.15625 3.876953 L 11.15625 3.876953 C 11.485991 3.876953 11.485991 3.376953 11.15625 3.376953 Z M 4.589844 4.451172 L 2.7148438 5.201172 C 2.4090217 5.3244695 2.5959147 5.793464 2.9023438 5.669922 L 4.777344 4.919922 C 5.083166 4.7966243 4.8956656 4.3278743 4.589844 4.451172 Z M 9.125 4.501953 C 8.957734 4.58614 8.895633 4.87823 9.125 4.970703 L 11 5.720703 C 11.306429 5.844245 11.493322 5.375251 11.1875 5.251953 L 9.3125 4.501953 C 9.23605 4.471129 9.180755 4.473891 9.125 4.501953 Z" fill="#555"/>
        <path d="M 7 1 C 6.4022075 1 6 1.4692172 6 2 L 6 9 L 3.1132812 14 L 4.267578 14 L 6 11 L 6 14 L 8 14 L 8 11 L 9.732422 14 L 10.886719 14 L 8 9 L 8 2 C 8 1.5039063 7.5977925 1 7 1 Z M 2.7148438 1.5449219 C 2.5475777 1.6291099 2.4854766 1.9211987 2.7148438 2.013672 L 4.589844 2.763672 C 4.8962727 2.887214 5.083166 2.4182195 4.777344 2.294922 L 2.9023438 1.5449219 C 2.8258838 1.5140979 2.7705987 1.5168599 2.7148438 1.5449219 Z M 11 1.5957031 L 9.125 2.345703 C 8.819178 2.4690007 9.006071 2.9379952 9.3125 2.814453 L 11.1875 2.064453 C 11.493323 1.9411555 11.305822 1.4724055 11 1.5957031 Z M 2.7460938 3.326172 C 2.4163518 3.326172 2.4163518 3.826172 2.7460938 3.826172 L 4.746094 3.826172 C 5.07649 3.826172 5.075836 3.326172 4.746094 3.326172 Z M 9.15625 3.376953 C 8.826508 3.376953 8.825854 3.876953 9.15625 3.876953 L 11.15625 3.876953 C 11.485991 3.876953 11.485991 3.376953 11.15625 3.376953 Z M 4.589844 4.451172 L 2.7148438 5.201172 C 2.4090217 5.3244695 2.5959147 5.793464 2.9023438 5.669922 L 4.777344 4.919922 C 5.083166 4.7966243 4.8956656 4.3278743 4.589844 4.451172 Z M 9.125 4.501953 C 8.957734 4.58614 8.895633 4.87823 9.125 4.970703 L 11 5.720703 C 11.306429 5.844245 11.493322 5.375251 11.1875 5.251953 L 9.3125 4.501953 C 9.23605 4.471129 9.180755 4.473891 9.125 4.501953 Z" stroke="white" stroke-linecap="butt" stroke-linejoin="round" stroke-width="2"/>
      </g>
      <g id="Graphic_4">
        <path d="M 7 1 C 6.4022075 1 6 1.4692172 6 2 L 6 9 L 3.1132812 14 L 4.267578 14 L 6 11 L 6 14 L 8 14 L 8 11 L 9.732422 14 L 10.886719 14 L 8 9 L 8 2 C 8 1.5039063 7.5977925 1 7 1 Z M 2.7148438 1.5449219 C 2.5475777 1.6291099 2.4854766 1.9211987 2.7148438 2.013672 L 4.589844 2.763672 C 4.8962727 2.887214 5.083166 2.4182195 4.777344 2.294922 L 2.9023438 1.5449219 C 2.8258838 1.5140979 2.7705987 1.5168599 2.7148438 1.5449219 Z M 11 1.5957031 L 9.125 2.345703 C 8.819178 2.4690007 9.006071 2.9379952 9.3125 2.814453 L 11.1875 2.064453 C 11.493323 1.9411555 11.305822 1.4724055 11 1.5957031 Z M 2.7460938 3.326172 C 2.4163518 3.326172 2.4163518 3.826172 2.7460938 3.826172 L 4.746094 3.826172 C 5.07649 3.826172 5.075836 3.326172 4.746094 3.326172 Z M 9.15625 3.376953 C 8.826508 3.376953 8.825854 3.876953 9.15625 3.876953 L 11.15625 3.876953 C 11.485991 3.876953 11.485991 3.376953 11.15625 3.376953 Z M 4.589844 4.451172 L 2.7148438 5.201172 C 2.4090217 5.3244695 2.5959147 5.793464 2.9023438 5.669922 L 4.777344 4.919922 C 5.083166 4.7966243 4.8956656 4.3278743 4.589844 4.451172 Z M 9.125 4.501953 C 8.957734 4.58614 8.895633 4.87823 9.125 4.970703 L 11 5.720703 C 11.306429 5.844245 11.493322 5.375251 11.1875 5.251953 L 9.3125 4.501953 C 9.23605 4.471129 9.180755 4.473891 9.125 4.501953 Z" fill="#555"/>
      </g>
    </g>
  </g>
</svg>
